X: 38057
T: Spinning Wheel, The
R: reel
M: 4/4
K: Dmajor
|:G|FD~D2 FGAd|cded BEEG|FD~D2 FGAd|cdAG FDD:|
e|fdcd ABcd|efgf eEEg|fdcd ABcd|egfe dDDe|
fdcd ABcd|efgf eEEG|FD~D2 FGAd|cdAG FDD||

